third_party/noto/noto_2/emoji_u1f6f3.svg

<svg enable-background="new 0 0 128 128" version="1.1" viewBox="0 0 128 128" xmlns="http://www.w3.org/2000/svg"><path d="m64.42 5.58-0.95 3.63-3.39-0.28c-0.18 2.19 0.84 4.07 2.3 4.43l-0.98 3.75-5.57-0.86c-0.19 2.35 0.98 4.37 2.62 4.5l1.85 0.56-1.58 6.01 5.74 1.62 2.39-23.15-2.43-0.21z" fill="#94D1E0"/><path d="m59.59 40.41h-31.23c-7.2 0-7.82-4.4-7.53-7.43 0.35-3.68 2.4-5.43 5.47-5.59l30.31-1.37 2.98 14.39z" fill="#DFECF5"/><path d="m56.61 39.83 22.47 3.3v-8.46c0-1.87-1.31-3.51-3.19-3.96l-18.92-4.6c-0.7-0.17-1.44-0.01-2 0.45-0.87 0.73-1.97 2.2-2.25 5.07-0.45 4.8 0.73 7.54 3.89 8.2z" fill="#82AEC0"/><path d="m53.45 35.87-32.3 0.66s-0.35-1.12-0.35-2.93 0.75-3.32 0.75-3.32l31.9-1.35v6.94z" fill="#8EC9D6"/><path d="m52.85 35.88 22.3 3.45c0.64 0.1 1.23-0.39 1.24-1.04l0.05-3.08c0.01-0.5-0.34-0.95-0.83-1.06l-22.28-5.21c-1.52 3.34-0.48 6.94-0.48 6.94z" fill="#2F7889"/><polygon points="116.6 83.34 53.76 79.01 56.61 40.96 111.1 49.15 110.58 62.17 118.09 62.98" fill="#2F7889"/><path d="m102.69 27.24 8.48 1.23c0.35 0.08 0.59 0.49 0.64 1.1 0 0 0.34 1.28-0.62 1.75-0.52 0.26-2.43 0.83-2.43 0.83-0.71 0.36-1.25 0.77-1.33 2.82l-0.1 12.8-11.85-1.07s4.46-13.81 5.58-17.66c0.33-1.14 1.05-1.94 1.63-1.8z" fill="#F44336"/><polygon points="95.92 45.69 96.39 44.24 107.35 44.5 107.35 47.78" fill="#C62828"/><path d="m111.35 61.44 0.55-13.66-52.22-7.82-0.49 4.75 4.98 0.71-0.49 10.82-4.78-0.52-0.03 4.95 4.59 0.48-0.5 10.99-7.19-0.55-0.32 4.71 62.21 4.79 1.18-18.91-7.49-0.74zm-40.8 11.29-5.51-0.43 0.5-10.93 5.5 0.58-0.49 10.78zm0.72-15.66-5.5-0.6 0.49-10.74 5.49 0.82-0.48 10.52zm6.89 16.24-5.51-0.43 0.49-10.71 5.51 0.58-0.49 10.56zm0.7-15.42-5.5-0.6 0.48-10.43 5.49 0.82-0.47 10.21zm6.92 16.01-5.52-0.43 0.48-10.5 5.55 0.59-0.51 10.34zm0.74-15.17-5.57-0.61 0.47-10.12 5.59 0.84-0.49 9.89zm6.87 15.76-5.51-0.43 0.51-10.28 5.51 0.58-0.51 10.13zm0.74-14.93-5.51-0.6 0.48-9.81 5.51 0.83-0.48 9.58zm6.86 15.51-5.51-0.43 0.5-10.06 5.51 0.58-0.5 9.91zm0.75-14.68-5.51-0.6 0.47-9.5 5.51 0.82-0.47 9.28zm6.85 15.27-5.5-0.42 0.5-9.85 5.45 0.58-0.45 9.69zm0.66-14.45-5.42-0.59 0.47-9.19 5.37 0.8-0.42 8.98zm6.75 15.02-5.31-0.41 0.44-9.64 5.47 0.58-0.6 9.47z" fill="#94D1E0"/><polygon points="109.52 54.73 57.44 47.54 59.42 44.71 111.7 52.53" fill="#82AEC0"/><polygon points="116.43 69.49 56.39 64.2 58.86 60.66 118.46 66.91" fill="#82AEC0"/><polygon points="59.42 44.71 59.67 39.95 26.97 40.35 26.22 44.33 28.86 46.73 27.01 55.19 24.73 55.19 24.29 60.15 25.59 61.69 22.12 77.65 55.96 78.94 56.5 64.03 58.86 60.66 58.89 55.72 57.44 55.7 57.44 47.54" fill="#DFECF5"/><path d="m6.15 75.42s56.97-0.93 111.49 5.66l-0.19 4.93s-8.49-0.68-12.36-0.68-5.92 9.38-10.47 9.38-27.72-1.08-32.72-2.43c-5.01-1.34-3.62-9.51-8.14-10.64s-47.61-2.71-47.61-2.71v-3.51z" fill="#82AEC0"/><path d="m98.96 87.61-0.33 0.87c-1.04 2.75-3.74 4.51-6.67 4.34l-24.89-1.57c-3.11-0.17-5.78-2.3-6.63-5.3l-0.55-1.95c-0.79-2.79-3.24-4.78-6.13-5l-47.61-3.58c-1.13-0.09-2.06 0.87-1.93 2 0 0 0.81 9.58 2.06 17.33l116.9 3.73c0.55-7.19 0.82-14.02 0.82-14.02l-18.37-1.1c-2.92-0.22-5.64 1.51-6.67 4.25z" fill="#DFECF5"/><path d="m6.15 93.55s0.95 10.46 4.44 18.97 12.3 10.94 16.67 10.94h83.43c5.08 0 8.8-4.11 10.32-9.39 0.77-2.66 1.78-10.12 2.27-16.95l-117.13-3.57z" fill="#2167A1"/><polygon points="30.3 54.5 52.27 54.7 51.56 46.05 32.22 45.79" fill="#8EC9D6"/><polygon points="26.5 70.99 53.76 71.48 52.55 62.92 28.81 62.74" fill="#8EC9D6"/><path d="m84.1 89.14 9.29 0.48c0.88 0.05 1.44-0.94 0.94-1.67l-3.08-4.51c-0.18-0.27-0.48-0.44-0.81-0.46l-5.1-0.37c-0.52-0.04-0.99 0.3-1.12 0.81l-1.11 4.4c-0.16 0.64 0.32 1.28 0.99 1.32z" fill="#2F7889"/><path d="m78.06 82.07-9.66-0.7c-0.42-0.03-0.82 0.19-1.02 0.57l-2.49 4.69c-0.37 0.69 0.11 1.53 0.89 1.57l13.37 0.69c0.72 0.04 1.27-0.64 1.09-1.34l-1.23-4.67c-0.11-0.45-0.49-0.77-0.95-0.81z" fill="#2F7889"/><circle cx="24.57" cy="85.52" r="3.87" fill="#2F7889"/><ellipse cx="36.9" cy="85.94" rx="3.46" ry="3.62" fill="#2F7889"/><ellipse cx="49.23" cy="86.37" rx="3.04" ry="3.37" fill="#2F7889"/><ellipse cx="105.56" cy="89.66" rx="2.37" ry="2.69" fill="#2F7889"/><ellipse cx="113.18" cy="89.93" rx="2.09" ry="2.52" fill="#2F7889"/><ellipse cx="119.89" cy="90.19" rx="1.8" ry="2.34" fill="#2F7889"/><line x1="124" x2="100.91" y1="84.46" y2="82.22" fill="none" stroke="#82AEC0" stroke-miterlimit="10"/></svg>

<?xml version="1.0" encoding="utf-8"?>
<!-- Generator: Adobe Illustrator 25.2.3, SVG Export Plug-In . SVG Version: 6.00 Build 0)  -->
<svg version="1.1" id="Layer_5" xmlns="http://www.w3.org/2000/svg" xmlns:xlink="http://www.w3.org/1999/xlink" x="0px" y="0px"
	 viewBox="0 0 128 128" style="enable-background:new 0 0 128 128;" xml:space="preserve">
<path style="fill:#94D1E0;" d="M64.42,5.58l-0.95,3.63l-3.39-0.28c-0.18,2.19,0.84,4.07,2.3,4.43l-0.98,3.75l-5.57-0.86
	c-0.19,2.35,0.98,4.37,2.62,4.5l1.85,0.56l-1.58,6.01l5.74,1.62l2.39-23.15L64.42,5.58z"/>
<path style="fill:#DFECF5;" d="M59.59,40.41H28.36c-7.2,0-7.82-4.4-7.53-7.43c0.35-3.68,2.4-5.43,5.47-5.59l30.31-1.37L59.59,40.41z
	"/>
<path style="fill:#82AEC0;" d="M56.61,39.83l22.47,3.3v-8.46c0-1.87-1.31-3.51-3.19-3.96l-18.92-4.6c-0.7-0.17-1.44-0.01-2,0.45
	c-0.87,0.73-1.97,2.2-2.25,5.07C52.27,36.43,53.45,39.17,56.61,39.83z"/>
<path style="fill:#8EC9D6;" d="M53.45,35.87l-32.3,0.66c0,0-0.35-1.12-0.35-2.93s0.75-3.32,0.75-3.32l31.9-1.35V35.87z"/>
<path style="fill:#2F7889;" d="M52.85,35.88l22.3,3.45c0.64,0.1,1.23-0.39,1.24-1.04l0.05-3.08c0.01-0.5-0.34-0.95-0.83-1.06
	l-22.28-5.21C51.81,32.28,52.85,35.88,52.85,35.88z"/>
<polygon style="fill:#2F7889;" points="116.6,83.34 53.76,79.01 56.61,40.96 111.1,49.15 110.58,62.17 118.09,62.98 "/>
<path style="fill:#F44336;" d="M102.69,27.24l8.48,1.23c0.35,0.08,0.59,0.49,0.64,1.1c0,0,0.34,1.28-0.62,1.75
	c-0.52,0.26-2.43,0.83-2.43,0.83c-0.71,0.36-1.25,0.77-1.33,2.82l-0.1,12.8L95.48,46.7c0,0,4.46-13.81,5.58-17.66
	C101.39,27.9,102.11,27.1,102.69,27.24z"/>
<polygon style="fill:#C62828;" points="95.92,45.69 96.39,44.24 107.35,44.5 107.35,47.78 "/>
<path style="fill:#94D1E0;" d="M111.35,61.44l0.55-13.66l-52.22-7.82l-0.49,4.75l4.98,0.71l-0.49,10.82l-4.78-0.52l-0.03,4.95
	l4.59,0.48l-0.5,10.99l-7.19-0.55l-0.32,4.71l62.21,4.79l1.18-18.91L111.35,61.44z M70.55,72.73l-5.51-0.43l0.5-10.93l5.5,0.58
	L70.55,72.73z M71.27,57.07l-5.5-0.6l0.49-10.74l5.49,0.82L71.27,57.07z M78.16,73.31l-5.51-0.43l0.49-10.71l5.51,0.58L78.16,73.31z
	 M78.86,57.89l-5.5-0.6l0.48-10.43l5.49,0.82L78.86,57.89z M85.78,73.9l-5.52-0.43l0.48-10.5l5.55,0.59L85.78,73.9z M86.52,58.73
	l-5.57-0.61L81.42,48l5.59,0.84L86.52,58.73z M93.39,74.49l-5.51-0.43l0.51-10.28l5.51,0.58L93.39,74.49z M94.13,59.56l-5.51-0.6
	l0.48-9.81l5.51,0.83L94.13,59.56z M100.99,75.07l-5.51-0.43l0.5-10.06l5.51,0.58L100.99,75.07z M101.74,60.39l-5.51-0.6l0.47-9.5
	l5.51,0.82L101.74,60.39z M108.59,75.66l-5.5-0.42l0.5-9.85l5.45,0.58L108.59,75.66z M109.25,61.21l-5.42-0.59l0.47-9.19l5.37,0.8
	L109.25,61.21z M116,76.23l-5.31-0.41l0.44-9.64l5.47,0.58L116,76.23z"/>
<polygon style="fill:#82AEC0;" points="109.52,54.73 57.44,47.54 59.42,44.71 111.7,52.53 "/>
<polygon style="fill:#82AEC0;" points="116.43,69.49 56.39,64.2 58.86,60.66 118.46,66.91 "/>
<polygon style="fill:#DFECF5;" points="59.42,44.71 59.67,39.95 26.97,40.35 26.22,44.33 28.86,46.73 27.01,55.19 24.73,55.19 
	24.29,60.15 25.59,61.69 22.12,77.65 55.96,78.94 56.5,64.03 58.86,60.66 58.89,55.72 57.44,55.7 57.44,47.54 "/>
<path style="fill:#82AEC0;" d="M6.15,75.42c0,0,56.97-0.93,111.49,5.66l-0.19,4.93c0,0-8.49-0.68-12.36-0.68s-5.92,9.38-10.47,9.38
	S66.9,93.63,61.9,92.28c-5.01-1.34-3.62-9.51-8.14-10.64c-4.52-1.13-47.61-2.71-47.61-2.71V75.42z"/>
<path style="fill:#DFECF5;" d="M98.96,87.61l-0.33,0.87c-1.04,2.75-3.74,4.51-6.67,4.34l-24.89-1.57c-3.11-0.17-5.78-2.3-6.63-5.3
	l-0.55-1.95c-0.79-2.79-3.24-4.78-6.13-5L6.15,75.42c-1.13-0.09-2.06,0.87-1.93,2c0,0,0.81,9.58,2.06,17.33l116.9,3.73
	c0.55-7.19,0.82-14.02,0.82-14.02l-18.37-1.1C102.71,83.14,99.99,84.87,98.96,87.61z"/>
<path style="fill:#2167A1;" d="M6.15,93.55c0,0,0.95,10.46,4.44,18.97s12.3,10.94,16.67,10.94h83.43c5.08,0,8.8-4.11,10.32-9.39
	c0.77-2.66,1.78-10.12,2.27-16.95L6.15,93.55z"/>
<polygon style="fill:#8EC9D6;" points="30.3,54.5 52.27,54.7 51.56,46.05 32.22,45.79 "/>
<polygon style="fill:#8EC9D6;" points="26.5,70.99 53.76,71.48 52.55,62.92 28.81,62.74 "/>
<path style="fill:#2F7889;" d="M84.1,89.14l9.29,0.48c0.88,0.05,1.44-0.94,0.94-1.67l-3.08-4.51c-0.18-0.27-0.48-0.44-0.81-0.46
	l-5.1-0.37c-0.52-0.04-0.99,0.3-1.12,0.81l-1.11,4.4C82.95,88.46,83.43,89.1,84.1,89.14z"/>
<path style="fill:#2F7889;" d="M78.06,82.07l-9.66-0.7c-0.42-0.03-0.82,0.19-1.02,0.57l-2.49,4.69c-0.37,0.69,0.11,1.53,0.89,1.57
	l13.37,0.69c0.72,0.04,1.27-0.64,1.09-1.34l-1.23-4.67C78.9,82.43,78.52,82.11,78.06,82.07z"/>
<circle style="fill:#2F7889;" cx="24.57" cy="85.52" r="3.87"/>
<ellipse style="fill:#2F7889;" cx="36.9" cy="85.94" rx="3.46" ry="3.62"/>
<ellipse style="fill:#2F7889;" cx="49.23" cy="86.37" rx="3.04" ry="3.37"/>
<ellipse style="fill:#2F7889;" cx="105.56" cy="89.66" rx="2.37" ry="2.69"/>
<ellipse style="fill:#2F7889;" cx="113.18" cy="89.93" rx="2.09" ry="2.52"/>
<ellipse style="fill:#2F7889;" cx="119.89" cy="90.19" rx="1.8" ry="2.34"/>
<line style="fill:none;stroke:#82AEC0;stroke-miterlimit:10;" x1="124" y1="84.46" x2="100.91" y2="82.22"/>
</svg>
